packages/core/src/svgs/num.svg

<svg width="24" height="24" viewBox="0 0 24 24" fill="none" xmlns="http://www.w3.org/2000/svg">
<g clip-path="url(#clip0_31_15018)">
<path d="M0 0H24V24H0V0Z" fill="#0000D8"/>
<path d="M9.857 6.85693V12.8569L14.1427 17.1426V11.1426L9.857 6.85693ZM18.4284 6.85693H14.1427V11.1426L17.1427 14.1298L14.1427 17.1426H18.4284V6.85693ZM9.857 6.85693H5.57129V17.1426H9.857V12.8569L6.857 9.85693L9.857 6.85693Z" fill="#F0F3FA"/>
</g>
<defs>
<clipPath id="clip0_31_15018">
<rect width="24" height="24" fill="white"/>
</clipPath>
</defs>
</svg>

<svg xmlns="http://www.w3.org/2000/svg" width="24" height="24" fill="none" viewBox="0 0 24 24"><g clip-path="url(#a)"><path fill="#0000D8" d="M0 0h24v24H0z"/><path fill="#F0F3FA" d="M9.857 6.857v6l4.286 4.286v-6zm8.571 0h-4.285v4.286l3 2.987-3 3.013h4.285zm-8.571 0H5.571v10.286h4.286v-4.286l-3-3z"/></g><defs><clipPath id="a"><path fill="#fff" d="M0 0h24v24H0z"/></clipPath></defs></svg>
